X:139
T:Paperbag Rag
C:Paul Glasse - The Road to Home
N:mandolin: Paul Glasse - TablEdited by Philippe Colleu
L:1/8
Q:1/4=108
M:4/4
K:C
A,3C z2 D2 | z2 E2 FE DE | "G7"FD A,C B,^G F^F | "A7"GB AF AB FD | 
"Dm"EA cB AF Ad | ^cd fd gd f^g | "G7"gf dA ^cd3 | "A7"z2 ^g2 "Dm"a2 ga | zd c2 f2 gg | 
zf2z e3d | "G7"^cd fd gf dA | "A7"Bc ^ca fc ec | "Dm"dA BB c/B/A GD | EF E/D/C ED CA, | 
"G7"DC DD FA ^cd | "A7"z2 c2 "Dm"B2 A2 | "G7"[B2G2] [BG]D FG FD | [B2G2] [BG]D F[BG] [BF]D | 
"Dm"[^c^G][d2A2][B2=G2]F DD | FD EF ED CD | "G7"c/B/A FE DA, CA, | B,G AG FD GF | 
"E7"^Gd ed Gf Gd | ed ^Gf Gd e2 | "A"G^c [e2c2] Gf Gc | "A13"g^c Gf Gc e2 | "Dm"c'2 a2 c'2 ac' | 
zd'/z/ b6 | "G7"d'^c' =c'_b =be ga | "A7"_bg e^c fc AF | "Dm"cA FA dA FA | cA dA cA df | 
"G7"g^g =gf ed c^G | "A7"AG F^C "Dm"D4 | 


